common/svg/runtime-version-icon.svg

<svg fill="none" height="20" viewBox="0 0 21 20" width="21" xmlns="http://www.w3.org/2000/svg"><path clip-rule="evenodd" d="m11.2319.284429c-.304-.175997-.6788-.176295-.9831-.000781l-7.68486 4.432792c-.30416.17544-.49155.49988-.49155.851v8.86506c0 .3511.18739.6756.49155.851l7.68486 4.4328c.3043.1755.6791.1752.9831-.0008l7.6549-4.4317c.3034-.1757.4902-.4997.4902-.8502v-8.8672c0-.35057-.1868-.67457-.4902-.85022zm6.9027 12.807371-.0061.7516-3.2326 1.9809.0061-.7516 1.2722-.7796.0302-3.6727-.0537.0329-1.2326 1.6947.0072-.87 1.2898-1.77767.745-.45654-.0377 4.59081zm-4.0849.5914c-.0147 1.7882-.6132 3.1496-1.6644 3.7938-1.0544.6461-1.6366.0083-1.6219-1.7799.0146-1.7846.6132-3.1459 1.6676-3.7921 1.0512-.6442 1.6333-.0063 1.6187 1.7782zm-1.6249-1.0303c-.584.3579-.9023 1.2603-.9132 2.5857-.0009.111.0013.2165.0037.3145l1.6913-2.4731c-.1309-.5165-.3966-.6631-.7818-.4271zm-.8152 3.6528c.1309.5129.3935.6614.7818.4234.5808-.3559.8992-1.2583.9101-2.5874.0009-.1074-.0014-.2128-.0037-.3108z" fill="#000" fill-rule="evenodd"/></svg>

<svg width="21" height="20" viewBox="0 0 21 20" fill="none" xmlns="http://www.w3.org/2000/svg">
<path fill-rule="evenodd" clip-rule="evenodd" d="M11.2319 0.284429C10.9279 0.108432 10.5531 0.108134 10.2488 0.283648L2.56394 4.71644C2.25978 4.89188 2.07239 5.21632 2.07239 5.56744V14.4325C2.07239 14.7836 2.25978 15.1081 2.56394 15.2835L10.2488 19.7163C10.5531 19.8918 10.9279 19.8915 11.2319 19.7155L18.8868 15.2838C19.1902 15.1081 19.377 14.7841 19.377 14.4336V5.5664C19.377 5.21583 19.1902 4.89183 18.8868 4.71618L11.2319 0.284429ZM18.1346 13.0918L18.1285 13.8434L14.8959 15.8243L14.902 15.0727L16.1742 14.2931L16.2044 10.6204L16.1507 10.6533L14.9181 12.348L14.9253 11.478L16.2151 9.70033L16.9601 9.24379L16.9224 13.8346L18.1346 13.0918ZM14.0497 13.6832C14.035 15.4714 13.4365 16.8328 12.3853 17.477C11.3309 18.1231 10.7487 17.4853 10.7634 15.6971C10.778 13.9125 11.3766 12.5512 12.431 11.905C13.4822 11.2608 14.0643 11.8987 14.0497 13.6832ZM12.4248 12.6529C11.8408 13.0108 11.5225 13.9132 11.5116 15.2386C11.5107 15.3496 11.5129 15.4551 11.5153 15.5531L13.2066 13.08C13.0757 12.5635 12.81 12.4169 12.4248 12.6529ZM11.6096 16.3057C11.7405 16.8186 12.0031 16.9671 12.3914 16.7291C12.9722 16.3732 13.2906 15.4708 13.3015 14.1417C13.3024 14.0343 13.3001 13.9289 13.2978 13.8309L11.6096 16.3057Z" fill="black"/>
</svg>
